projects/flag-game/flags/Nauru.svg

<svg viewBox="0 0 1000 500" xmlns="http://www.w3.org/2000/svg"><path d="m0 0h1000v500h-1000z" fill="#002b7f"/><g fill-rule="evenodd"><path d="m0 229.167969h1000v41.664062h-1000zm0 0" fill="#ffc61e"/><path d="m250 437.5-10.785156-43.082031-30.882813 31.917969 12.207031-42.707032-42.707031 12.203125 31.917969-30.882812-43.082031-10.78125 43.082031-10.785157-31.917969-30.882812 42.707031 12.207031-12.207031-42.710937 30.882813 31.921875 10.785156-43.085938 10.785156 43.085938 30.882813-31.921875-12.207031 42.710937 42.707031-12.207031-31.917969 30.882812 43.082031 10.785157-43.082031 10.78125 31.917969 30.882812-42.707031-12.203125 12.207031 42.707032-30.882813-31.917969zm0 0" fill="#fff"/></g></svg>

<?xml version="1.0" encoding="UTF-8"?>
<svg xmlns="http://www.w3.org/2000/svg" xmlns:xlink="http://www.w3.org/1999/xlink" viewBox="0 0 1000 500" version="1.1">
<g id="surface835">
<rect x="0" y="0" width="1000" height="500" style="fill:rgb(0%,16.862488%,49.803162%);fill-opacity:1;stroke:none;"/>
<path style=" stroke:none;fill-rule:evenodd;fill:rgb(99.998474%,77.645874%,11.764526%);fill-opacity:1;" d="M 0 229.167969 L 1000 229.167969 L 1000 270.832031 L 0 270.832031 Z M 0 229.167969 "/>
<path style=" stroke:none;fill-rule:evenodd;fill:rgb(99.998474%,99.998474%,99.998474%);fill-opacity:1;" d="M 250 437.5 L 239.214844 394.417969 L 208.332031 426.335938 L 220.539062 383.628906 L 177.832031 395.832031 L 209.75 364.949219 L 166.667969 354.167969 L 209.75 343.382812 L 177.832031 312.5 L 220.539062 324.707031 L 208.332031 281.996094 L 239.214844 313.917969 L 250 270.832031 L 260.785156 313.917969 L 291.667969 281.996094 L 279.460938 324.707031 L 322.167969 312.5 L 290.25 343.382812 L 333.332031 354.167969 L 290.25 364.949219 L 322.167969 395.832031 L 279.460938 383.628906 L 291.667969 426.335938 L 260.785156 394.417969 Z M 250 437.5 "/>
</g>
</svg>
